!!!OTL: 2060. Marias Wanderung.
!!!ODT: 1880
!!!ARE: Europa, Mitteleuropa, Deutschland, Hessen, Unter Lahnkreis, Dillkreis
!!!SCT: E2060A
!!!TXL: @@DE
!!!YEM: Copyright 1995, estate of Helmut Schaffrath.
**kern	**text
*ICvox	*
*M4/4	*
*met(c)	*
*k[f#]	*
*G:	*
!LO:TX:a:t=Aus dem Unterlahn- und Dillkreis. 1880.	!
{4d	Ma-
=1	=1
8gL	-ri-
8aJ	.
8b/	-a
8b/	ging
4a	aus
8ddL	ʒu
8ccJ	.
=2	=2
8bL	wan-
8aJ	.
4g	-dern,
4r}	.
{4b/	wollt
=3	=3
8aL	al-
8gJ	.
8f#L	-le
8gJ	.
8aL	Län-
8gJ	.
8f#	-der
8e	durch-
=4	=4
2d	-gehn,
4r}	.
{4d	wollt
=5	=5
8.gL	al-
16aJ	.
4b/	-le
8.aL	Län-
16bJ	.
8cc	-der
8ee	durch-
=6	=6
2dd	-gehn,
4r}	.
{4cc	um
=7	=7
8b/	ih-
8dd	-ren
8g	lie-
8a	-ben
4b/	Sohn
4a	ʒu
=8	=8
2g	ſehn.
4r}	.
==	==
!!!AGN: geistlich, Marien - Lied, Legende
!!!ONB: ESAC (Essen Associative Code) Database: ERK3
!!!AMT: simple quadruple
!!!AIN: vox
!!!EED: Helmut Schaffrath
!!!EEV: 1.0
!!!GTL: 4. Katholische Lieder: b) Marienlieder (Rufe und Legenden.)
!!!URL-scan: https://rosdok.uni-rostock.de/mcrviewer/recordIdentifier/rosdok_ppn745177999/iview2/phys_0761.iview2?x=154.36169998046898&y=1624.6366321919486&scale=0.7014306698522891&rotation=0&layout=singlePageLayout
!!!ENC: Anna Maria Matuszewska
!!!EEV: 2025/13/01
*-	*-
